img/mobile-nav/2.svg

<svg width="40" height="40" viewBox="0 0 40 40" fill="none" xmlns="http://www.w3.org/2000/svg">
<path d="M8 30.9977L8.2107 30.7707C8.56304 30.3852 8.89634 30.0216 9.57365 29.7657C10.6462 29.3617 11.6711 29.0386 12.5745 28.7526C13.5328 28.4493 14.3613 28.1888 14.7624 27.9734C15.5469 27.5566 15.8956 27.0495 15.8956 26.3304V23.9789C15.7266 23.8272 15.5802 23.6802 15.4635 23.5424C14.9029 22.887 14.4446 21.1572 14.147 19.74C13.9054 19.5154 13.7363 19.1785 13.6685 18.7721L13.384 17.0295C13.2864 16.4448 13.6209 15.8462 13.8447 15.522C13.7839 15.3472 13.7316 15.1249 13.7316 14.8829C13.7316 14.5796 13.7804 13.2122 14.0054 12.5626C14.1613 12.1145 14.5017 11.6861 14.7755 11.3423C14.8767 11.2149 14.9684 11.1026 15.0279 11.01C15.2421 10.6788 15.7945 10.2689 16.5587 9.75602C16.598 9.6275 16.6515 9.36583 16.6813 9.08679C16.7063 8.85985 16.7563 8.3863 17.2027 8.23694C17.6395 8.09221 17.9657 8.41061 18.1466 8.59355C18.1454 8.51366 18.1299 6.56039 18.7704 6.15978L19.0275 6L19.3643 6.10189C19.7369 6.24546 19.8322 6.61249 19.9631 7.12078C20.0274 7.36624 20.1226 7.73675 20.2143 7.87106C20.4381 8.2022 21.3249 8.98606 21.6165 9.2431L21.7772 9.38667C21.8451 9.42604 22.345 9.64139 22.6747 9.78497C23.4639 10.1254 23.8294 10.2909 24.0139 10.4391C24.0294 10.4507 25.3721 11.5356 25.6494 12.1122C25.7387 12.2998 26.3648 13.754 26.3482 14.3329C26.3398 14.6189 26.2577 15.1573 26.2053 15.4757C26.5065 15.9007 26.7469 16.5606 26.6696 17.0295L26.3839 18.7698C26.3363 19.0639 26.2327 19.3255 26.0815 19.5363C25.7828 21.0137 25.3114 22.8535 24.7221 23.5424C24.5579 23.7346 24.346 23.9407 24.0996 24.1468V26.3293C24.0996 27.0483 24.4484 27.5543 25.2316 27.9711C25.634 28.1865 26.4625 28.447 27.4219 28.7503C28.3254 29.0363 29.3503 29.3593 30.4228 29.7634C31.1001 30.0193 31.4334 30.3829 31.7893 30.7731L32 31" stroke="#A50034" stroke-width="2"/>
<path d="M1 20.0006C1 9.52426 9.52537 1 20.0019 1C30.477 1 39 9.52405 39 20.0006C39 30.4759 30.477 39 20.0019 39C9.52533 39 1 30.4757 1 20.0006Z" stroke="white" stroke-width="2"/>
</svg>

<svg xmlns="http://www.w3.org/2000/svg" fill="none" viewBox="0 0 40 40">
  <path stroke="#A50034" stroke-width="2" d="m8 30.998.21-.227c.353-.386.686-.75 1.364-1.005 1.072-.404 2.097-.727 3-1.013.959-.304 1.787-.564 2.188-.78.785-.416 1.134-.924 1.134-1.643v-2.35a4.581 4.581 0 0 1-.433-.437c-.56-.655-1.018-2.385-1.316-3.802-.242-.225-.41-.561-.479-.968l-.284-1.742c-.098-.585.237-1.184.46-1.508a1.967 1.967 0 0 1-.112-.64c0-.302.048-1.67.273-2.32.156-.447.497-.876.77-1.22.102-.127.193-.24.253-.332.214-.331.766-.741 1.53-1.254.04-.129.093-.39.123-.67.025-.226.075-.7.522-.85.437-.144.763.175.944.358-.002-.08-.017-2.034.623-2.434l.258-.16.336.102c.373.143.468.51.6 1.019.063.245.159.616.25.75.224.331 1.11 1.115 1.402 1.372l.161.144c.068.039.568.254.898.398.789.34 1.154.506 1.339.654.015.012 1.358 1.097 1.635 1.673.09.188.716 1.642.7 2.22-.01.287-.091.825-.144 1.144.302.425.542 1.085.465 1.553l-.286 1.74a1.804 1.804 0 0 1-.303.767c-.298 1.478-.77 3.317-1.359 4.006a5.297 5.297 0 0 1-.622.605v2.182c0 .72.348 1.225 1.132 1.642.402.215 1.23.476 2.19.78.903.285 1.928.608 3 1.012.678.256 1.011.62 1.367 1.01L32 31"/>
  <path stroke="#fff" stroke-width="2" d="M1 20C1 9.525 9.525 1 20.002 1 30.477 1 39 9.524 39 20s-8.523 19-18.998 19C9.525 39 1 30.476 1 20Z"/>
</svg>
